X: 39923
T: Thomas Ryan's
R: jig
M: 6/8
K: Dmixolydian
|:Add D2E|~F3 AFF|Ade fed|cAB ~c3:|
|:egg ~g2a|ged cAG|Aaa a2b|age dcA|
GBd ~g3|fed cAG|Ade fed|cAB ~c3:|

